X: 31220
T: Paddy Fahey's
R: jig
M: 6/8
K: Dmajor
DFA d3|Afe dAF|DGB g2e|fed cAF|
DFA d3|Afe dAF|G2E A,CE|FDD D3||
faf d3|=cBd g3|gAd f2e|dcd e2f|
g2a fgg|afe def|gef dge|ce/d/c d3||

